icons/zap-16.svg

<svg width="16" height="16" viewBox="0 0 16 16" fill="none" xmlns="http://www.w3.org/2000/svg">
<path fill-rule="evenodd" clip-rule="evenodd" d="M5.8371 0.399084C5.96708 0.153561 6.22214 0 6.49994 0H12.2499C12.5201 0 12.7695 0.145344 12.9026 0.380476C13.0357 0.615607 13.0321 0.904174 12.8931 1.13587L10.5746 5H12.4954C14.0762 5 14.8468 6.92997 13.7007 8.01875L5.66124 15.6562C5.42893 15.8769 5.12074 16 4.8003 16H4.55896C3.62973 16 3.02536 15.0221 3.44093 14.191L5.53642 10H3.66085C2.34209 10 1.49719 8.5967 2.11422 7.4312L5.8371 0.399084ZM6.9515 1.5L3.4399 8.13303C3.35175 8.29953 3.47245 8.5 3.66085 8.5H6.74994C7.00988 8.5 7.25128 8.63459 7.38793 8.8557C7.52459 9.07681 7.53701 9.35292 7.42076 9.58541L5.2014 14.0241L12.6676 6.93125C12.8313 6.77571 12.7212 6.5 12.4954 6.5H9.24994C8.97974 6.5 8.73042 6.35466 8.59729 6.11952C8.46416 5.88439 8.4678 5.59583 8.60682 5.36413L10.9253 1.5H6.9515Z" fill="black"/>
</svg>

<svg xmlns="http://www.w3.org/2000/svg" width="16" height="16" viewBox="0 0 16 16"><path fill-rule="evenodd" d="M5.837.4A.75.75 0 016.5 0h5.75a.75.75 0 01.643 1.136L10.575 5h1.92c1.581 0 2.352 1.93 1.206 3.019l-8.04 7.637a1.25 1.25 0 01-.86.344h-.242a1.25 1.25 0 01-1.118-1.809L5.536 10H3.661a1.75 1.75 0 01-1.547-2.569L5.837.4zm1.115 1.1L3.44 8.133a.25.25 0 00.22.367h3.09a.75.75 0 01.67 1.085l-2.219 4.44 7.467-7.094a.25.25 0 00-.173-.431H9.25a.75.75 0 01-.643-1.136L10.925 1.5H6.951z"/></svg>
